svgs/light/usb-drive.svg

<svg xmlns="http://www.w3.org/2000/svg" viewBox="0 0 640 512"><!-- Font Awesome Pro 6.0.0-alpha2 by @fontawesome - https://fontawesome.com License - https://fontawesome.com/license (Commercial License) --><path d="M416 96H64C28.654 96 0 124.654 0 160V352C0 387.346 28.654 416 64 416H416C433.674 416 448 401.674 448 384V128C448 110.326 433.674 96 416 96ZM416 384H64C46.355 384 32 369.645 32 352V160C32 142.355 46.355 128 64 128H416V384ZM592 128H496C487.156 128 480 135.156 480 144S487.156 160 496 160H592C600.812 160 608 167.172 608 176V336C608 344.828 600.812 352 592 352H496C487.156 352 480 359.156 480 368S487.156 384 496 384H592C618.469 384 640 362.469 640 336V176C640 149.531 618.469 128 592 128ZM552 224H568C572.418 224 576 220.418 576 216V200C576 195.58 572.418 192 568 192H552C547.582 192 544 195.58 544 200V216C544 220.418 547.582 224 552 224ZM544 312C544 316.418 547.582 320 552 320H568C572.418 320 576 316.418 576 312V296C576 291.58 572.418 288 568 288H552C547.582 288 544 291.58 544 296V312Z"/></svg>

<svg xmlns="http://www.w3.org/2000/svg" viewBox="0 0 640 512"><!--! Font Awesome Pro 6.3.0 by @fontawesome - https://fontawesome.com License - https://fontawesome.com/license (Commercial License) Copyright 2023 Fonticons, Inc. --><path d="M416 96L64 96c-35.35 0-64 28.65-64 64v192c0 35.35 28.65 64 64 64L416 416c17.67 0 32-14.33 32-32V128C448 110.3 433.7 96 416 96zM416 384H64c-17.64 0-32-14.36-32-32V160c0-17.64 14.36-32 32-32h352V384zM592 128h-96C487.2 128 480 135.2 480 144S487.2 160 496 160h96C600.8 160 608 167.2 608 176v160c0 8.828-7.188 16-16 16h-96c-8.844 0-16 7.156-16 16s7.156 16 16 16h96c26.47 0 48-21.53 48-48v-160C640 149.5 618.5 128 592 128zM552 224h16C572.4 224 576 220.4 576 216v-16C576 195.6 572.4 192 568 192h-16C547.6 192 544 195.6 544 200v16C544 220.4 547.6 224 552 224zM544 312C544 316.4 547.6 320 552 320h16C572.4 320 576 316.4 576 312v-16C576 291.6 572.4 288 568 288h-16C547.6 288 544 291.6 544 296V312z"/></svg>
